assets/flags-color/My.svg

<svg xmlns="http://www.w3.org/2000/svg" viewBox="0 0 512.001 512.001"><path fill="#ff4b55" d="M0 0h512v36.571H0z"/><path fill="#f5f5f5" d="M0 36.571h512v36.571H0z"/><path fill="#ff4b55" d="M0 73.14h512v36.571H0z"/><path fill="#f5f5f5" d="M0 109.71h512v36.571H0z"/><path fill="#ff4b55" d="M0 146.29h512v36.571H0z"/><path fill="#f5f5f5" d="M0 182.86h512v36.571H0z"/><path fill="#ff4b55" d="M0 219.43h512v36.571H0z"/><path fill="#f5f5f5" d="M0 256h512v36.571H0z"/><path fill="#ff4b55" d="M512 329.143H0v-59.669h13.474l.003 23.097H512z"/><path fill="#f5f5f5" d="M0 329.14h512v36.571H0z"/><path fill="#ff4b55" d="M0 365.71h512v36.571H0z"/><path fill="#f5f5f5" d="M0 402.29h512v36.571H0z"/><path fill="#ff4b55" d="M0 438.86h512v36.571H0z"/><path fill="#f5f5f5" d="M0 475.43h512v36.571H0z"/><path fill="#41479b" d="M0 0h292.57v292.57H0z"/><g fill="#ffe15a"><path d="M62.745 146.139c0-43.482 35.293-78.754 78.735-78.754a78.335 78.335 0 0130.789 6.27c1.229.523 2.154-1.187 1.05-1.938-15.662-10.662-34.814-16.502-55.357-15.435-45.165 2.348-82.096 38.726-85.016 83.858-3.396 52.496 38.145 95.984 89.809 95.984 18.67 0 36.026-5.753 50.439-15.507 1.11-.751.19-2.465-1.044-1.942a78.342 78.342 0 01-30.67 6.22c-43.442 0-78.735-35.272-78.735-78.756"/><path d="M242.731 146.139l33.286-12.88c1.646-.637 1.085-3.094-.675-2.953l-35.565 2.848 24.441-26.125c1.205-1.288-.365-3.257-1.889-2.368l-30.889 18.02 10.661-34.09c.526-1.683-1.743-2.775-2.729-1.313L219.376 116.9l-5.13-35.357c-.253-1.747-2.773-1.748-3.029-.002l-3.277 22.372-1.36 9.467-.523 3.52-19.997-29.597c-.988-1.462-3.257-.368-2.728 1.316l10.701 34.062-30.887-18.02c-1.524-.889-3.094 1.08-1.889 2.368l24.439 26.126-35.574-2.848c-1.76-.141-2.321 2.317-.674 2.953l33.316 12.879-33.317 12.882c-1.646.637-1.086 3.094.674 2.953l35.575-2.848-24.441 26.192c-1.204 1.29.37 3.256 1.892 2.365l30.885-18.084-10.701 34.062c-.529 1.683 1.741 2.778 2.728 1.316l19.996-29.598.523 3.603 1.36 9.384 3.277 22.431c.255 1.747 2.776 1.745 3.029-.002l5.13-35.416 19.997 29.623c.987 1.462 3.256.37 2.729-1.313l-10.661-34.09 30.887 18.083c1.522.891 3.096-1.075 1.892-2.365l-24.442-26.192 35.566 2.848c1.759.141 2.321-2.316.675-2.953l-33.286-12.881z"/></g></svg>

<svg xmlns="http://www.w3.org/2000/svg" x="0" y="0" enable-background="new 0 0 512.001 512.001" version="1.1" viewBox="0 0 512.001 512.001" xml:space="preserve"><path fill="#FF4B55" d="M0 0H512V36.571H0z"/><path fill="#F5F5F5" d="M0 36.571H512V73.142H0z"/><path fill="#FF4B55" d="M0 73.14H512V109.711H0z"/><path fill="#F5F5F5" d="M0 109.71H512V146.281H0z"/><path fill="#FF4B55" d="M0 146.29H512V182.861H0z"/><path fill="#F5F5F5" d="M0 182.86H512V219.431H0z"/><path fill="#FF4B55" d="M0 219.43H512V256.001H0z"/><path fill="#F5F5F5" d="M0 256H512V292.571H0z"/><path fill="#FF4B55" d="M512 329.143 0 329.143 0 269.474 13.474 269.474 13.477 292.571 512 292.571z"/><path fill="#F5F5F5" d="M0 329.14H512V365.711H0z"/><path fill="#FF4B55" d="M0 365.71H512V402.28099999999995H0z"/><path fill="#F5F5F5" d="M0 402.29H512V438.861H0z"/><path fill="#FF4B55" d="M0 438.86H512V475.43100000000004H0z"/><path fill="#F5F5F5" d="M0 475.43H512V512.001H0z"/><path fill="#41479B" d="M0 0H292.57V292.57H0z"/><g fill="#FFE15A"><path d="M62.745 146.139c0-43.482 35.293-78.754 78.735-78.754a78.335 78.335 0 0 1 30.789 6.27c1.229.523 2.154-1.187 1.05-1.938-15.662-10.662-34.814-16.502-55.357-15.435-45.165 2.348-82.096 38.726-85.016 83.858-3.396 52.496 38.145 95.984 89.809 95.984 18.67 0 36.026-5.753 50.439-15.507 1.11-.751.19-2.465-1.044-1.942a78.342 78.342 0 0 1-30.67 6.22c-43.442 0-78.735-35.272-78.735-78.756"/><path d="m242.731 146.139 33.286-12.88c1.646-.637 1.085-3.094-.675-2.953l-35.565 2.848 24.441-26.125c1.205-1.288-.365-3.257-1.889-2.368l-30.889 18.02 10.661-34.09c.526-1.683-1.743-2.775-2.729-1.313L219.376 116.9l-5.13-35.357c-.253-1.747-2.773-1.748-3.029-.002l-3.277 22.372-1.36 9.467-.523 3.52-19.997-29.597c-.988-1.462-3.257-.368-2.728 1.316l10.701 34.062-30.887-18.02c-1.524-.889-3.094 1.08-1.889 2.368l24.439 26.126-35.574-2.848c-1.76-.141-2.321 2.317-.674 2.953l33.316 12.879-33.317 12.882c-1.646.637-1.086 3.094.674 2.953l35.575-2.848-24.441 26.192c-1.204 1.29.37 3.256 1.892 2.365l30.885-18.084-10.701 34.062c-.529 1.683 1.741 2.778 2.728 1.316l19.996-29.598.523 3.603 1.36 9.384 3.277 22.431c.255 1.747 2.776 1.745 3.029-.002l5.13-35.416 19.997 29.623c.987 1.462 3.256.37 2.729-1.313l-10.661-34.09 30.887 18.083c1.522.891 3.096-1.075 1.892-2.365l-24.442-26.192 35.566 2.848c1.759.141 2.321-2.316.675-2.953l-33.286-12.881z"/></g></svg>
